src/shared/routelogo/images/2.svg

<?xml version="1.0" standalone="no"?>
<!DOCTYPE svg PUBLIC "-//W3C//DTD SVG 1.1//EN" "http://www.w3.org/Graphics/SVG/1.1/DTD/svg11.dtd">
<svg width="100%" height="100%" viewBox="0 0 90 90" version="1.1" xmlns="http://www.w3.org/2000/svg" xmlns:xlink="http://www.w3.org/1999/xlink" xml:space="preserve" style="fill-rule:evenodd;clip-rule:evenodd;stroke-linejoin:round;stroke-miterlimit:1.41421;">
    <g id="2">
        <circle cx="45" cy="45" r="45" style="fill:rgb(238,52,46);"/>
        <path d="M30.7259,59.7135C32.0497,56.5668 35.1747,53.2357 40.1009,49.7201C44.3761,46.6602 47.143,44.4683 48.4017,43.1445C50.3331,41.0829 51.2988,38.826 51.2988,36.3737C51.2988,34.3772 50.7454,32.717 49.6387,31.3932C48.5319,30.0694 46.9477,29.4076 44.8861,29.4076C42.0649,29.4076 40.1443,30.4601 39.1243,32.5651C38.5384,33.7804 38.1912,35.7118 38.0827,38.3594L29.0658,38.3594C29.2177,34.3446 29.9447,31.1003 31.2467,28.6263C33.7207,23.9171 38.1152,21.5625 44.4303,21.5625C49.4217,21.5625 53.393,22.946 56.3444,25.7129C59.2958,28.4798 60.7715,32.1419 60.7715,36.6992C60.7715,40.1931 59.7298,43.2964 57.6465,46.0091C56.2793,47.8103 54.0332,49.8177 50.9082,52.0313L47.1973,54.668C44.8752,56.3173 43.2856,57.5109 42.4284,58.2487C41.5712,58.9865 40.8496,59.8438 40.2637,60.8203L60.8691,60.8203L60.8691,68.9909L28.5449,68.9909C28.6317,65.6055 29.3587,62.513 30.7259,59.7135Z" style="fill:white;fill-rule:nonzero;"/>
    </g>
</svg>

<svg viewBox="0 0 90 90" xmlns="http://www.w3.org/2000/svg" xml:space="preserve" style="fill-rule:evenodd;clip-rule:evenodd;stroke-linejoin:round;stroke-miterlimit:1.41421"><circle cx="45" cy="45" r="45" style="fill:#ee342e"/><path d="M30.726 59.714c1.324-3.147 4.449-6.478 9.375-9.994 4.275-3.06 7.042-5.252 8.3-6.575 1.932-2.062 2.898-4.319 2.898-6.771 0-1.997-.554-3.657-1.66-4.98-1.107-1.325-2.691-1.986-4.753-1.986-2.821 0-4.742 1.052-5.762 3.157-.586 1.215-.933 3.147-1.041 5.794h-9.017c.152-4.014.879-7.259 2.18-9.733 2.475-4.709 6.87-7.064 13.184-7.064 4.992 0 8.963 1.384 11.914 4.15 2.952 2.768 4.428 6.43 4.428 10.987 0 3.494-1.042 6.597-3.125 9.31-1.368 1.801-3.614 3.809-6.739 6.022l-3.71 2.637c-2.323 1.65-3.912 2.843-4.77 3.58a10.493 10.493 0 0 0-2.164 2.572h20.605v8.17H28.545c.087-3.384.814-6.477 2.18-9.276Z" style="fill:#fff;fill-rule:nonzero"/></svg>
